X: 832
M: 6/8
L: 1/8
K: Gmix
V: 1
|: d |\
g2g gab | ded Td2B | g2g gab | e2e Te2d |\
def gfe | dBd gab | geg dBG | B2B TB2 :|
V: 2 clef=bass middle=d
z |\
g3 g3 | a3 a3 | g3 g3 | g3 g3 |\
g3 g3 | d3 d3 | c3 d3 | G3 G2 :|
|: z |\
g3 g3 | g3 g3 | g3 g3 | c3 c3 |\
d3 c3 | B3 G3 | c3 d3 | G3 G2 :|

